X: 4651
T: Boxwood Walk
R: jig
M: 6/8
K: Dmajor
|:~F3 FED|FAA ABc|dce dcA|~G3 GFD|
~G3 GFD|~B3 BAG|FAe dcA|1 BGE AGE:|2 GED D2e||
fec Ace|fdA FAd|Bdg ~b3|afd Adf|
~e3 f2e|dfa baf|~e3 f2e|fdA GFE||

